src/images/Tools/Firebase.svg

<svg fill="none" height="50" viewBox="0 0 50 50" width="50" xmlns="http://www.w3.org/2000/svg" xmlns:xlink="http://www.w3.org/1999/xlink"><linearGradient id="a" gradientUnits="userSpaceOnUse" x1="-61.8389" x2="2651.73" y1="520.352" y2="1951.73"><stop offset="0" stop-color="#fff" stop-opacity=".1"/><stop offset=".14" stop-color="#fff" stop-opacity=".08"/><stop offset=".61" stop-color="#fff" stop-opacity=".02"/><stop offset="1" stop-color="#fff" stop-opacity="0"/></linearGradient><clipPath id="b"><path d="m0 0h50v50h-50z"/></clipPath><g clip-path="url(#b)"><path d="m0 0h50v50h-50z" fill="#fff"/><path d="m14.0117 34.2053 3.6926-23.6283c.0451-.2898.2705-.5182.5596-.5673.2892-.04918.5773.0922.7155.3508l3.8188 7.1225 1.5221-2.8981c.1179-.2241.3503-.3644.6035-.3644.2533 0 .4856.1403.6035.3644l10.3054 19.6203z" fill="#ffa000"/><path d="m26.7686 25.001-3.9722-7.5215-8.7847 16.7256z" fill="#f57c00"/><path d="m35.8329 34.2055-2.8282-17.5013c-.0428-.2513-.2221-.4578-.465-.5356s-.5088-.013-.6892.1672l-17.8388 17.8695 9.8707 5.5354c.6198.3461 1.3747.3461 1.9946 0z" fill="#ffca28"/><path d="m33.0049 16.7041c-.0428-.2513-.2221-.4578-.465-.5356-.2429-.0779-.5088-.0131-.6892.1671l-3.5406 3.5496-2.7841-5.3003c-.1179-.2241-.3503-.3644-.6035-.3644s-.4856.1403-.6035.3644l-1.5222 2.8981-3.8189-7.1224c-.1385-.2587-.4269-.3998-.7164-.3503s-.5141.2785-.5588.5685l-3.6908 23.6266h-.0119l.0119.0136.0972.0477 17.7365-17.757c.1803-.1811.4468-.2463.6903-.1687.2436.0776.4232.2849.4655.5369l2.8044 17.3445.0273-.0171zm-18.9606 17.4689 3.6602-23.4271c.0445-.29.2697-.519.5589-.5685s.5777.0915.7165.3503l3.8185 7.1225 1.5221-2.8981c.1179-.2241.3503-.3644.6035-.3644s.4856.1403.6035.3644l2.7277 5.1876z" fill="#fff" fill-opacity=".2"/><path d="m25.877 39.5739c-.6198.3461-1.3747.3461-1.9946 0l-9.8468-5.52-.0239.1517 9.8707 5.5338c.6198.346 1.3747.346 1.9946 0l9.9559-5.5338-.0256-.1568z" fill="#a52714" opacity=".2"/><path d="m32.9773 16.7075c-.0426-.2512-.2213-.4578-.4634-.5351-.242-.0774-.5069-.0131-.6867.1671l-3.5284 3.5478-2.7742-5.2979c-.1175-.224-.3491-.3642-.6014-.3642s-.4838.1402-.6013.3642l-1.5171 2.8969-3.8053-7.1195c-.1381-.2586-.4255-.39968-.7137-.3501-.2883.0495-.5126.2783-.557.5682l-3.678 23.6162 9.8362 5.5313c.6176.346 1.3699.346 1.9876 0l9.9211-5.5313z" fill="url(#a)"/></g></svg>

<svg width="50" height="50" viewBox="0 0 50 50" fill="none" xmlns="http://www.w3.org/2000/svg">
<rect width="50" height="50" fill="white"/>
<path d="M14.0117 34.2053L17.7043 10.577C17.7494 10.2872 17.9748 10.0588 18.2639 10.0097C18.5531 9.96054 18.8412 10.1019 18.9794 10.3605L22.7982 17.483L24.3203 14.5849C24.4382 14.3608 24.6706 14.2205 24.9238 14.2205C25.1771 14.2205 25.4094 14.3608 25.5273 14.5849L35.8327 34.2052L14.0117 34.2053Z" fill="#FFA000"/>
<path d="M26.7686 25.0012L22.7964 17.4797L14.0117 34.2053L26.7686 25.0012Z" fill="#F57C00"/>
<path d="M35.8329 34.2053L33.0047 16.704C32.9619 16.4527 32.7826 16.2462 32.5397 16.1684C32.2968 16.0906 32.0309 16.1554 31.8505 16.3356L14.0117 34.2051L23.8824 39.7405C24.5022 40.0866 25.2571 40.0866 25.877 39.7405L35.8329 34.2051V34.2053Z" fill="#FFCA28"/>
<path d="M33.0049 16.7041C32.9621 16.4528 32.7828 16.2463 32.5399 16.1685C32.297 16.0906 32.0311 16.1554 31.8507 16.3356L28.3101 19.8852L25.526 14.5849C25.4081 14.3608 25.1757 14.2205 24.9225 14.2205C24.6693 14.2205 24.4369 14.3608 24.319 14.5849L22.7968 17.483L18.9779 10.3606C18.8394 10.1019 18.551 9.96081 18.2615 10.0103C17.972 10.0598 17.7474 10.2888 17.7027 10.5788L14.0119 34.2054H14L14.0119 34.219L14.1091 34.2667L31.8456 16.5097C32.0259 16.3286 32.2924 16.2634 32.5359 16.341C32.7795 16.4186 32.9591 16.6259 33.0014 16.8779L35.8058 34.2224L35.8331 34.2053L33.0049 16.7041ZM14.0443 34.173L17.7045 10.7459C17.749 10.4559 17.9742 10.2269 18.2634 10.1774C18.5526 10.1279 18.8411 10.2689 18.9799 10.5277L22.7984 17.6502L24.3205 14.7521C24.4384 14.528 24.6708 14.3877 24.924 14.3877C25.1772 14.3877 25.4096 14.528 25.5275 14.7521L28.2552 19.9397L14.0443 34.173Z" fill="white" fill-opacity="0.2"/>
<path opacity="0.2" d="M25.877 39.5737C25.2572 39.9198 24.5023 39.9198 23.8824 39.5737L14.0356 34.0537L14.0117 34.2054L23.8824 39.7392C24.5022 40.0852 25.2571 40.0852 25.877 39.7392L35.8329 34.2054L35.8073 34.0486L25.877 39.5737Z" fill="#A52714"/>
<path d="M32.9773 16.7076C32.9347 16.4564 32.756 16.2498 32.5139 16.1725C32.2719 16.0951 32.007 16.1594 31.8272 16.3396L28.2988 19.8874L25.5246 14.5895C25.4071 14.3655 25.1755 14.2253 24.9232 14.2253C24.6709 14.2253 24.4394 14.3655 24.3219 14.5895L22.8048 17.4864L18.9995 10.3669C18.8614 10.1083 18.574 9.96726 18.2858 10.0168C17.9975 10.0663 17.7732 10.2951 17.7288 10.585L14.0508 34.2012L23.887 39.7325C24.5046 40.0785 25.2569 40.0785 25.8746 39.7325L35.7957 34.2012L32.9773 16.7076V16.7076Z" fill="url(#paint0_linear_333_1975)"/>
<defs>
<linearGradient id="paint0_linear_333_1975" x1="-61.8389" y1="520.352" x2="2651.73" y2="1951.73" gradientUnits="userSpaceOnUse">
<stop stop-color="white" stop-opacity="0.1"/>
<stop offset="0.14" stop-color="white" stop-opacity="0.08"/>
<stop offset="0.61" stop-color="white" stop-opacity="0.02"/>
<stop offset="1" stop-color="white" stop-opacity="0"/>
</linearGradient>
</defs>
</svg>
